src/lib/packages/icons/src/assets/filled/facebook-messenger.svg

<svg width="24" height="24" viewBox="0 0 24 24" fill="none" xmlns="http://www.w3.org/2000/svg">
<path d="M12 3C6.93 3 3 6.71 3 11.73C3 14.35 4.07999 16.62 5.82999 18.19C5.97999 18.32 6.07001 18.51 6.07001 18.7L6.12 20.3C6.13 20.7 6.45999 21.01 6.85999 21C6.94999 21 7.04 20.98 7.13 20.94L8.92001 20.15C9.07001 20.08 9.23999 20.07 9.39999 20.11C10.22 20.33 11.09 20.46 12.01 20.46C17.08 20.46 21.01 16.75 21.01 11.73C21.01 6.71 17.08 3 12.01 3H12ZM17.43 9.67L14.77 13.94C14.37 14.58 13.53 14.78 12.9 14.37C12.87 14.35 12.84 14.33 12.81 14.31L10.7 12.7C10.51 12.55 10.24 12.55 10.05 12.7L7.20001 14.9C6.82001 15.19 6.31999 14.73 6.57999 14.32L9.23999 10.04C9.63999 9.39999 10.48 9.2 11.11 9.61C11.14 9.63 11.17 9.65 11.2 9.67L13.31 11.28C13.5 11.43 13.77 11.43 13.96 11.28L16.81 9.08C17.19 8.79 17.69 9.25 17.43 9.66V9.67Z" fill="currentColor"/>
</svg>

<svg xmlns="http://www.w3.org/2000/svg" width="24" height="24" fill="none"><path fill="currentColor" d="M12 3c-5.07 0-9 3.71-9 8.73 0 2.62 1.08 4.89 2.83 6.46.15.13.24.32.24.51l.05 1.6a.717.717 0 0 0 1.01.64l1.79-.79a.72.72 0 0 1 .48-.04c.82.22 1.69.35 2.61.35 5.07 0 9-3.71 9-8.73 0-5.02-3.93-8.73-9-8.73H12Zm5.43 6.67-2.66 4.27c-.4.64-1.24.84-1.87.43l-.09-.06-2.11-1.61a.526.526 0 0 0-.65 0L7.2 14.9c-.38.29-.88-.17-.62-.58l2.66-4.28a1.343 1.343 0 0 1 1.96-.37l2.11 1.61c.19.15.46.15.65 0l2.85-2.2c.38-.29.88.17.62.58v.01Z"/></svg>
